dist/img/logo_icon.svg

<svg width="1024" height="1024" viewBox="0 0 1024 1024" fill="none" xmlns="http://www.w3.org/2000/svg"><path d="M893.872 220.57c-96.816 0-233.594 8.101-303.493 77.961-30.262 30.263-45.374 79.597-41.45 135.435.509 7.376 5.413 13.66 12.46 15.986a18.192 18.192 0 0019.509-5.485c38.872-45.739 87.189-82.395 143.718-108.952 4.795-2.288 10.462-2.471 15.621-.654 4.541 1.635 8.1 4.723 9.953 8.684 3.85 8.138 2.616 18.854-10.171 24.884-.728.363-1.382.837-2.107 1.164-.254.109-.545.073-.763.182-139.285 65.465-207.765 179.684-238.863 297.134-22.67-147.059-70.551-233.632-115.78-286.78-32.732-42.432-64.921-64.921-83.52-77.635-3.452-2.362-13.877-9.482-18.201-13.806-7.084-7.084-7.084-18.601 0-25.685 7.084-7.048 18.637-7.048 26.52.799 1.926 1.708 5.013 3.888 8.937 6.503l3.233 2.18c26.302 18.019 75.275 51.478 118.723 123.518 3.888 6.43 11.408 9.882 18.71 8.501a18.153 18.153 0 0014.677-14.386c9.482-48.426 5.232-120.286-37.963-163.481-69.896-69.825-206.675-77.925-303.455-77.925-10.029-.002-18.167 8.136-18.167 18.163 0 96.816 8.101 233.595 77.961 303.493 29.136 29.135 74.076 42.214 118.723 42.214 36.437 0 72.149-9.119 99.505-24.922 37.309 77.307 67.1 192.798 67.1 369.466 0 10.026 8.139 18.165 18.165 18.165 10.027 0 18.165-8.139 18.165-18.165 0-98.56 16.893-216.849 79.706-314.21 25.176 24.595 68.517 40.18 116.542 41.633 2.398.073 4.76.109 7.12.109 48.791 0 91.912-15.294 119.05-42.469 69.896-69.897 77.961-206.675 77.961-303.493.039-10.025-8.063-18.126-18.126-18.126z" fill="#00B307"/></svg>7.152 511.619 857.126C511.619 758.566 528.512 640.277 591.325 542.916C616.501 567.511 659.842 583.096 707.867 584.549C710.265 584.622 712.627 584.658 714.987 584.658C763.778 584.658 806.899 569.364 834.037 542.189C903.933 472.292 911.998 335.514 911.998 238.696C912.037 228.671 903.935 220.57 893.872 220.57Z" fill="#00B307"/>
</svg>

<svg width="1024" height="1024" viewBox="0 0 1024 1024" fill="none" xmlns="http://www.w3.org/2000/svg">
<path d="M893.872 220.57C797.056 220.57 660.278 228.671 590.379 298.531C560.117 328.794 545.005 378.128 548.929 433.966C549.438 441.342 554.342 447.626 561.389 449.952C568.4 452.24 576.102 450.097 580.898 444.467C619.77 398.728 668.087 362.072 724.616 335.515C729.411 333.227 735.078 333.044 740.237 334.861C744.778 336.496 748.337 339.584 750.19 343.545C754.04 351.683 752.806 362.399 740.019 368.429C739.291 368.792 738.637 369.266 737.912 369.593C737.658 369.702 737.367 369.666 737.149 369.775C597.864 435.24 529.384 549.459 498.286 666.909C475.616 519.85 427.735 433.277 382.506 380.129C349.774 337.697 317.585 315.208 298.986 302.494C295.534 300.132 285.109 293.012 280.785 288.688C273.701 281.604 273.701 270.087 280.785 263.003C287.869 255.955 299.422 255.955 307.305 263.802C309.231 265.51 312.318 267.69 316.242 270.305L319.475 272.485C345.777 290.504 394.75 323.963 438.198 396.003C442.086 402.433 449.606 405.885 456.908 404.504C464.319 403.196 470.131 397.493 471.585 390.118C481.067 341.692 476.817 269.832 433.622 226.637C363.726 156.812 226.947 148.712 130.167 148.712C120.138 148.71 112 156.848 112 166.875C112 263.691 120.101 400.47 189.961 470.368C219.097 499.503 264.037 512.582 308.684 512.582C345.121 512.582 380.833 503.463 408.189 487.66C445.498 564.967 475.289 680.458 475.289 857.126C475.289 867.152 483.428 875.291 493.454 875.291C503.481 875.291 511.619 867.152 511.619 857.126C511.619 758.566 528.512 640.277 591.325 542.916C616.501 567.511 659.842 583.096 707.867 584.549C710.265 584.622 712.627 584.658 714.987 584.658C763.778 584.658 806.899 569.364 834.037 542.189C903.933 472.292 911.998 335.514 911.998 238.696C912.037 228.671 903.935 220.57 893.872 220.57Z" fill="#00B307"/>
</svg>
